packages/katcn/src/icons/svg/heart.svg

<svg width="24" height="24" viewBox="0 0 24 24" fill="none" xmlns="http://www.w3.org/2000/svg">
<path d="M16.3 4C14.6 4 13.1 4.68786 12 5.96532C10.9 4.68786 9.4 4 7.7 4C4.6 4 2 6.55491 2 9.60116C2 9.79769 2 9.99422 2 10.1908C2.4 14.8092 7.4 18.6416 10.3 20.5087C10.8 20.8035 11.4 21 12 21C12.6 21 13.2 20.8035 13.7 20.5087C16.6 18.6416 21.6 14.8092 22 10.289C22 10.0925 22 9.89595 22 9.69942C22 6.55491 19.4 4 16.3 4ZM20 9.99422C19.7 13.9249 14.7 17.4624 12.6 18.7399C12.2 18.9364 11.8 18.9364 11.4 18.7399C9.3 17.3642 4.4 13.8266 4 9.89595C4 9.89595 4 9.69942 4 9.60116C4 7.63584 5.7 5.96532 7.7 5.96532C9.2 5.96532 10.5 6.84971 11.1 8.12717C11.2 8.52023 11.6 8.71676 12 8.71676C12.4 8.71676 12.8 8.52023 12.9 8.12717C13.5 6.84971 14.8 5.96532 16.3 5.96532C18.3 5.96532 20 7.63584 20 9.60116C20 9.69942 20 9.89595 20 9.99422Z" fill="black"/>
</svg>

<svg xmlns="http://www.w3.org/2000/svg" fill="none" viewBox="0 0 24 24"><path fill="#000" d="M16.3 4c-1.7 0-3.2.688-4.3 1.965C10.9 4.688 9.4 4 7.7 4 4.6 4 2 6.555 2 9.601v.59c.4 4.618 5.4 8.45 8.3 10.318.5.294 1.1.491 1.7.491s1.2-.197 1.7-.491c2.9-1.867 7.9-5.7 8.3-10.22v-.59C22 6.555 19.4 4 16.3 4M20 9.994c-.3 3.93-5.3 7.468-7.4 8.746q-.6.294-1.2 0c-2.1-1.376-7-4.913-7.4-8.844V9.6c0-1.965 1.7-3.636 3.7-3.636 1.5 0 2.8.885 3.4 2.162.1.393.5.59.9.59s.8-.197.9-.59a3.76 3.76 0 0 1 3.4-2.162c2 0 3.7 1.67 3.7 3.636z"/></svg>
